X: 3634
T: Bill McEvoy's
R: reel
M: 4/4
K: Gmajor
c2 Bd c=FFF|c=FAc fdgf|d2 (3cBA dGGG|dGBd gdBd|
c2 Ac fdge|1 fdcA G2 gf:|2 fdcA GABd||
|:ggga bgaf|gbag fddf|eccc aceA|fgag fdef|
ggga bgaf|gbag fddf|eccc gceg|1 fdcA GABd:|2 fdcA G2 gf||

